!!!!SEGMENT: pl-sa--377-a-viii-17--007_anonim--co-ewa-przez-obludnosc-stracila.krn
!!!cenid: 17xx:1729
!!!COM: Anonim
!!!COM-rismID: pe30004985
!!!CDT:
!!!CNT:
!!!OTL: Co Ewa przez obłudność straciła
!!!PDT:
!!!AGN: Sacred
!!!YEC: Copyright 2022 Narodowy Instytut Fryderyka Chopina (https://polishscores.org)
!!!YEM: License CC-BY-4.0 (https://creativecommons.org/licenses/by/4.0)
!!!SMS-siglum: PL-SA
!!!SMS-shelfmark: 377/A VIII 17
!!!SMS-shelfwork: 007 W
!!!SMS-variant:
!!!SMS-altvar:
!!!NIFC-rismSourceID: 1001077387
!!!NIFC-rismChildID: 1001077387
!!!NIFC-islandoraID: none
!!!URL-pdf-islandora:
!!!URL-scan: https://bc.bdsandomierz.pl/dlibra/publication/1681/edition/1649/content @EN{Scan in the Sandomierz Diocese Digital Library} @PL{Skany w portalu Cyfrowa Biblioteka Diecezjalna w Sandomierzu}
!!!IIIF:
!!!ONB-nifc: UWAGA, str. 8, s. 2-3
!!!AIN: 1 soprn
!!!key:
**kern	**text	**text	**text	**text
*staff1	*	*	*	*
*I"Canto.	*	*	*	*
*I'S	*	*	*	*
*Isoprn	*	*	*	*
*ICvox	*	*	*	*
*clefG2	*	*	*	*
*k[]	*	*	*	*
*a:	*	*	*	*
*M3/4	*	*	*	*
=1	=1	=1	=1	=1
*2\right	*	*	*	*
!!LO:TX:t=P:problem:4,8,16\middle or left:global
4gg\	Co	Przez	I	Po-
4gg\	E-	Je-	mÿ	-czę-
8gg\L	-wa	-zu-	tak-	-tą
8ff\J	.	.	.	.
=2	=2	=2	=2	=2
4ee\	przez	-sa	-ze	bez
8ee\L	o-	Pan-	dzis	zma-
8dd\J	.	.	.	.
8ee\L	-błu-	-nos	cię	-zÿ
8ff\J	.	.	.	.
=3	=3	=3	=3	=3
4gg\	-dnosc	na-	wy-	Wÿ-
8gg\L	ſtra-	-pra-	-chwa-	-zna-
8aa\	.	.	.	.
8gg\J	.	.	.	.
8ff\	-ci-	-wi-	-la-	-wa-
=4	=4	=4	=4	=4
2.ee\	-ła	-ła	-mÿ	-mÿ
=5-	=5-	=5-	=5-	=5-
*M2/2	*	*	*	*
*met(c|)	*	*	*	*
8gg\	Ludz-	Pa-	Od-	Af-
8gg\	-kim	-nien-	-bie-	-fe-
4aa\	Raÿ	-ſtwe(m)	-raÿ	-ktÿ
16gg\	grze-	twym	ſzcze-	na-
16aa\	-che(m)	ieſt	-rey	-aſzeÿ
16gg\	za-	o-	nie-	zy-
16ff\	-gu-	-zy-	-win-	-czli-
8ee\	-bio-	-wio-	-no-	-wo-
8cc\	-nÿ	-nÿ	-sci	-ſci.
!LO:LB:g=original	!	!	!	!
=6:|!	=6:|!	=6:|!	=6:|!	=6:|!
4ee\	Żyi	Więc	.	.
*	*ij	*ij	*	*
4gg\	Żyi	Więc	.	.
*	*Xij	*Xij	*	*
8ee\	Nie-	Pa-	.	.
16ee\	-po-	-nuy	.	.
16ff\	-ka-	ſzczę-	.	.
8ee\	-la-	-ſli-	.	.
8dd\	-na	-wie	.	.
=7	=7	=7	=7	=7
8ee\	Wiel-	pa-	.	.
16ee\LL	-ka	-nuÿ	.	.
16ff\JJ	.	.	.	.
8gg\	Pa-	Mat-	.	.
16gg\LL	-ni	-ko	.	.
16ff\JJ	.	.	.	.
8ee\	Wiel-	Mi-	.	.
16ee\	-kie-	-ło-	.	.
16ff\	-go	-ſci-	.	.
8ee\	Pa-	-wie	.	.
8dd\	-na	.	.	.
=8	=8	=8	=8	=8
8ee\	Cie-	Pa-	.	.
16ee\LL	-bie	-nuÿ	.	.
16ff\JJ	.	.	.	.
16gg\LL	Chwa-	bez	.	.
16aa\	.	.	.	.
16gg\JJ	.	.	.	.
16ff\	-le-	kon-	.	.
2ee\	-mÿ	-ca	.	.
==	==	==	==	==
*-	*-	*-	*-	*-
!!!system-decoration: [(s1)]
!!!ENC: Katarzyna Serwa
!!!END: 2021-12-30
!!!ENC: Katarzyna Serwa
!!!END: 2021-01-12
